src/assets/icons/low-sun.svg

<?xml version="1.0" encoding="UTF-8"?>
<svg width="67px" height="67px" viewBox="0 0 67 67" version="1.1" xmlns="http://www.w3.org/2000/svg" xmlns:xlink="http://www.w3.org/1999/xlink">
    <!-- Generator: Sketch 57.1 (83088) - https://sketch.com -->
    <title>Icon/Big/LowSun</title>
    <desc>Created with Sketch.</desc>
    <g id="assets" stroke="none" stroke-width="1" fill="none" fill-rule="evenodd">
        <g id="styleguide" transform="translate(-276.000000, -713.000000)" fill="#FFFFFF">
            <g id="Icon/Big/LowSun" transform="translate(275.000000, 712.000000)">
                <g id="Group-12" transform="translate(1.000000, 1.000000)">
                    <path d="M34.3481013,48.7658228 L34.3481013,67 L32.6518987,67 L32.6518987,48.7658228 L34.3481013,48.7658228 Z M46.8207873,43.9254544 L58.6356861,55.7403532 L57.4364709,56.9395684 L45.6215722,45.1246696 L46.8207873,43.9254544 Z M20.1792127,44.7735557 L21.3784278,45.9727709 L10.4116304,56.9395684 L9.21241519,55.7403532 L20.1792127,44.7735557 Z M33.5,19.9303797 C40.5146456,19.9303797 46.221519,25.6372532 46.221519,32.6518987 C46.221519,39.6665443 40.5146456,45.3734177 33.5,45.3734177 C26.4853544,45.3734177 20.778481,39.6665443 20.778481,32.6518987 C20.778481,25.6372532 26.4853544,19.9303797 33.5,19.9303797 Z M33.5,21.6265823 C27.4208101,21.6265823 22.4746835,26.5727089 22.4746835,32.6518987 C22.4746835,38.7310886 27.4208101,43.6772152 33.5,43.6772152 C39.5791899,43.6772152 44.5253165,38.7310886 44.5253165,32.6518987 C44.5253165,26.5727089 39.5791899,21.6265823 33.5,21.6265823 Z M16.5379747,32.6518987 L16.5379747,34.3481013 L-3.73034936e-14,34.3481013 L-3.73034936e-14,32.6518987 L16.5379747,32.6518987 Z M67,32.6518987 L67,34.3481013 L49.6139241,34.3481013 L49.6139241,32.6518987 L67,32.6518987 Z M56.5887089,8.36397468 L57.7879241,9.56318987 L45.9730253,21.3780886 L44.7738101,20.1788734 L56.5887089,8.36397468 Z M11.2593924,8.36397468 L22.6502405,19.7548228 L21.4510253,20.954038 L10.0601772,9.56318987 L11.2593924,8.36397468 Z M34.3481013,0 L34.3481013,16.5379747 L32.6518987,16.5379747 L32.6518987,0 L34.3481013,0 Z" id="Combined-Shape"></path>
                </g>
            </g>
        </g>
    </g>
</svg>

<svg width="67" height="67" xmlns="http://www.w3.org/2000/svg"><path d="M34.348 48.766V67h-1.696V48.766h1.696zm12.473-4.84L58.636 55.74l-1.2 1.2-11.814-11.815 1.199-1.2zm-26.642.848l1.2 1.199L10.411 56.94l-1.2-1.2L20.18 44.774zM33.5 19.93c7.015 0 12.722 5.707 12.722 12.722S40.515 45.373 33.5 45.373s-12.722-5.706-12.722-12.721S26.485 19.93 33.5 19.93zm0 1.697c-6.08 0-11.025 4.946-11.025 11.025 0 6.08 4.946 11.025 11.025 11.025 6.08 0 11.025-4.946 11.025-11.025 0-6.08-4.946-11.025-11.025-11.025zM16.538 32.652v1.696H0v-1.696h16.538zm50.462 0v1.696H49.614v-1.696H67zM56.589 8.364l1.199 1.2-11.815 11.814-1.2-1.2L56.59 8.365zm-45.33 0l11.391 11.39-1.199 1.2-11.39-11.39 1.198-1.2zM34.35 0v16.538h-1.697V0h1.696z" fill="#FFF" fill-rule="evenodd"/></svg>
